X:32
T:Polska från Östergötland
T:Svenska Folkdansar H4 nr 32
O:Östergötland
B:Traditioner av Svenska Folkdansar Häfte 4, nr 32
R:Polska
Z:Nils L
U:w=wedge
M:3/4
L:1/8
K:G
d>c B>c  d>e | c>d B2 d2  | e>d c>B d>c | (A2 G2) z2  ::
(G2 wB2) d>e | c>A B2 z2  | G>G B>B d>e | c>A B2  d>e  |
c>A B2   d>e | c>A B2 d>e | e>d B2  d>c | (A2 G2) z2  :|

